app/images/icons/stat.svg

<svg width="24" height="22" viewBox="0 0 24 22" fill="none" xmlns="http://www.w3.org/2000/svg">
<path d="M3 2V17.75C3.03125 18.2188 3.28125 18.4688 3.75 18.5H22.5C22.9375 18.5 23.2969 18.6406 23.5781 18.9219C23.8594 19.2031 24 19.5625 24 20C24 20.4375 23.8594 20.7969 23.5781 21.0781C23.2969 21.3594 22.9375 21.5 22.5 21.5H3.75C2.6875 21.4688 1.79688 21.1094 1.07812 20.4219C0.390625 19.7031 0.03125 18.8125 0 17.75V2C0 1.5625 0.140625 1.20312 0.421875 0.921875C0.703125 0.640625 1.0625 0.5 1.5 0.5C1.9375 0.5 2.29688 0.640625 2.57812 0.921875C2.85938 1.20312 3 1.5625 3 2ZM22.0781 6.07812L16.0781 12.0781C15.7656 12.3594 15.4062 12.5 15 12.5C14.5938 12.5 14.2344 12.3594 13.9219 12.0781L11.25 9.35938L7.07812 13.5781C6.76562 13.8594 6.40625 14 6 14C5.59375 14 5.23438 13.8594 4.92188 13.5781C4.64062 13.2656 4.5 12.9062 4.5 12.5C4.5 12.0938 4.64062 11.7344 4.92188 11.4219L10.1719 6.17188C10.4844 5.89062 10.8438 5.75 11.25 5.75C11.6562 5.75 12.0156 5.89062 12.3281 6.17188L15 8.89062L19.9219 3.92188C20.2344 3.64062 20.5938 3.5 21 3.5C21.4062 3.5 21.7656 3.64062 22.0781 3.92188C22.3594 4.23438 22.5 4.59375 22.5 5C22.5 5.40625 22.3594 5.76562 22.0781 6.07812Z" fill="#1D53C0"/>
</svg>

<svg width="24" height="22" fill="none" xmlns="http://www.w3.org/2000/svg"><path d="M3 2v15.75c.031.469.281.719.75.75H22.5c.438 0 .797.14 1.078.422.281.281.422.64.422 1.078 0 .438-.14.797-.422 1.078-.281.281-.64.422-1.078.422H3.75c-1.063-.031-1.953-.39-2.672-1.078C.391 19.703.031 18.812 0 17.75V2c0-.438.14-.797.422-1.078C.703.64 1.062.5 1.5.5c.438 0 .797.14 1.078.422C2.86 1.203 3 1.562 3 2zm19.078 4.078l-6 6A1.564 1.564 0 0115 12.5a1.56 1.56 0 01-1.078-.422L11.25 9.36l-4.172 4.22A1.564 1.564 0 016 14a1.56 1.56 0 01-1.078-.422A1.564 1.564 0 014.5 12.5c0-.406.14-.766.422-1.078l5.25-5.25a1.564 1.564 0 011.078-.422c.406 0 .766.14 1.078.422L15 8.89l4.922-4.97A1.564 1.564 0 0121 3.5c.406 0 .766.14 1.078.422.281.312.422.672.422 1.078s-.14.766-.422 1.078z" fill="#1D53C0"/></svg>
